;FLAVOR:Marlin
;TIME:1698
;Filament used: 0.688462m
;Layer height: 0.16
;MINX:180.975
;MINY:176.473
;MINZ:0.24
;MAXX:216.849
;MAXY:212.05
;MAXZ:6.88
;Generated with Cura_SteamEngine 4.13.0
M82 ;absolute extrusion mode
;Nozzle diameter = 0.4
;Filament type = PLA
;Filament name = PLA
;Filament weight = [2.0533735498046877]
; M190 S115
; M109 S275
START_PRINT EXTRUDER_TEMP=275 BED_TEMP=115
G92 E0
G92 E0
G1 F7200 E-2
;LAYER_COUNT:40
;LAYER:0
M107
M204 S10000
G1 F600 Z0.64
G0 F30000 X183.418 Y178.608 Z0.64
;TYPE:SKIRT
G1 F600 Z0.24
G1 F3600 E0
G1 F1200 X183.597 Y178.444 E0.00969
G1 X184.142 Y178.002 E0.0377
G1 X184.342 Y177.859 E0.04751
G1 X184.953 Y177.477 E0.07627
G1 X185.169 Y177.36 E0.08607
G1 X185.849 Y177.047 E0.11595
G1 X186.109 Y176.947 E0.12707
G1 X186.84 Y176.72 E0.15762
G1 X187.078 Y176.663 E0.16739
G1 X187.823 Y176.535 E0.19756
G1 X188.099 Y176.506 E0.20863
G1 X188.704 Y176.474 E0.23281
G1 X192.692 Y176.473 E0.39198
G1 X193.372 Y176.513 E0.41917
G1 X193.686 Y176.55 E0.43179
G1 X194.425 Y176.686 E0.46178
G1 X194.659 Y176.745 E0.47141
G1 X195.383 Y176.979 E0.50178
G1 X195.458 Y177.009 E0.505
G1 X196.14 Y176.797 E0.53351
G1 X196.378 Y176.74 E0.54328
G1 X197.123 Y176.612 E0.57345
G1 X197.399 Y176.583 E0.58452
G1 X198.004 Y176.551 E0.6087
G1 X201.992 Y176.55 E0.76787
G1 X202.672 Y176.59 E0.79506
G1 X202.986 Y176.627 E0.80768
G1 X203.758 Y176.772 E0.83903
G1 X203.994 Y176.833 E0.84876
G1 X204.656 Y177.046 E0.87652
G1 X204.881 Y177.134 E0.88616
G1 X205.539 Y177.441 E0.91514
G1 X205.756 Y177.559 E0.925
G1 X206.391 Y177.96 E0.95497
G1 X206.617 Y178.124 E0.96612
G1 X207.191 Y178.599 E0.99585
G1 X207.368 Y178.766 E1.00557
G1 X207.875 Y179.31 E1.03525
G1 X208.029 Y179.498 E1.04495
G1 X208.458 Y180.095 E1.07429
G1 X208.607 Y180.333 E1.08549
G1 X208.97 Y181.009 E1.11612
G1 X209.071 Y181.231 E1.12585
G1 X209.318 Y181.87 E1.1532
G1 X209.392 Y182.102 E1.16292
G1 X209.58 Y182.868 E1.1944
G1 X209.628 Y183.143 E1.20554
G1 X209.699 Y183.724 E1.2289
G1 X209.724 Y184.279 E1.25107
G1 X209.724 Y191.488 E1.5388
G1 X209.99 Y191.54 E1.54962
G1 X210.544 Y191.676 E1.57238
G1 X210.829 Y191.761 E1.58425
G1 X211.375 Y191.954 E1.60737
G1 X211.931 Y192.198 E1.6316
G1 X212.157 Y192.31 E1.64167
G1 X212.649 Y192.584 E1.66415
G1 X212.901 Y192.741 E1.676
G1 X213.453 Y193.132 E1.70299
G1 X213.726 Y193.35 E1.71694
G1 X214.173 Y193.746 E1.74077
G1 X214.688 Y194.281 E1.77041
G1 X214.85 Y194.47 E1.78035
G1 X215.199 Y194.922 E1.80314
G1 X215.371 Y195.168 E1.81512
G1 X215.692 Y195.681 E1.83927
G1 X215.836 Y195.941 E1.85113
G1 X216.096 Y196.473 E1.87477
G1 X216.213 Y196.747 E1.88666
G1 X216.417 Y197.303 E1.9103
G1 X216.491 Y197.541 E1.92024
G1 X216.622 Y198.036 E1.94068
G1 X216.685 Y198.327 E1.95256
G1 X216.786 Y198.969 E1.9785
G1 X216.816 Y199.265 E1.99038
G1 X216.846 Y199.779 E2.01093
G1 X216.849 Y200.023 E2.02067
G1 X216.827 Y200.598 E2.04363
G1 X216.801 Y200.896 E2.05557
G1 X216.717 Y201.496 E2.07975
G1 X216.66 Y201.79 E2.09171
G1 X216.524 Y202.344 E2.11447
G1 X216.439 Y202.629 E2.12634
G1 X216.246 Y203.175 E2.14946
G1 X216.006 Y203.722 E2.1733
G1 X215.895 Y203.947 E2.18331
G1 X215.613 Y204.453 E2.20643
G1 X215.455 Y204.706 E2.21834
G1 X215.068 Y205.253 E2.24508
G1 X214.85 Y205.526 E2.25902
G1 X214.454 Y205.973 E2.28286
G1 X213.919 Y206.488 E2.3125
G1 X213.73 Y206.65 E2.32243
G1 X213.284 Y206.996 E2.34496
G1 X213.04 Y207.167 E2.35685
G1 X212.52 Y207.492 E2.38133
G1 X212.258 Y207.637 E2.39328
G1 X211.727 Y207.896 E2.41686
G1 X211.453 Y208.013 E2.42875
G1 X210.897 Y208.217 E2.45239
G1 X210.659 Y208.291 E2.46234
G1 X210.164 Y208.422 E2.48277
G1 X209.873 Y208.485 E2.49466
G1 X209.227 Y208.587 E2.52076
G1 X208.929 Y208.617 E2.53271
G1 X208.42 Y208.646 E2.55306
G1 X208.356 Y208.647 E2.55562
G1 X208.094 Y209.02 E2.57381
G1 X207.676 Y209.516 E2.5997
G1 X207.509 Y209.693 E2.60941
G1 X206.965 Y210.2 E2.63909
G1 X206.777 Y210.354 E2.64879
G1 X206.18 Y210.783 E2.67813
G1 X205.942 Y210.932 E2.68934
G1 X205.436 Y211.215 E2.71248
G1 X205.341 Y211.262 E2.71671
G1 X204.851 Y211.476 E2.73805
G1 X204.591 Y211.576 E2.74917
G1 X203.86 Y211.803 E2.77972
G1 X203.622 Y211.86 E2.78949
G1 X202.877 Y211.988 E2.81966
G1 X202.601 Y212.017 E2.83073
G1 X201.996 Y212.049 E2.85491
G1 X198.008 Y212.05 E3.01408
G1 X197.346 Y212.012 E3.04055
G1 X197.032 Y211.976 E3.05316
G1 X196.188 Y211.815 E3.08746
G1 X195.92 Y211.743 E3.09853
G1 X195.245 Y211.513 E3.12699
G1 X194.56 Y211.726 E3.15562
G1 X194.322 Y211.783 E3.16539
G1 X193.577 Y211.911 E3.19556
G1 X193.301 Y211.94 E3.20664
G1 X192.696 Y211.972 E3.23082
G1 X188.708 Y211.973 E3.38999
G1 X188.046 Y211.935 E3.41645
G1 X187.732 Y211.899 E3.42907
G1 X186.888 Y211.738 E3.46336
G1 X186.62 Y211.666 E3.47444
G1 X185.898 Y211.42 E3.50488
G1 X185.672 Y211.326 E3.51465
G1 X184.995 Y210.991 E3.5448
G1 X184.753 Y210.851 E3.55596
G1 X184.173 Y210.468 E3.5837
G1 X184.004 Y210.341 E3.59213
G1 X183.508 Y209.923 E3.61802
G1 X183.331 Y209.756 E3.62774
G1 X182.824 Y209.212 E3.65742
G1 X182.67 Y209.024 E3.66712
G1 X182.237 Y208.421 E3.69674
G1 X182.089 Y208.184 E3.7079
G1 X181.73 Y207.514 E3.73824
G1 X181.629 Y207.292 E3.74797
G1 X181.365 Y206.599 E3.77757
G1 X181.283 Y206.333 E3.78868
G1 X181.103 Y205.566 E3.82012
G1 X181.063 Y205.323 E3.82995
G1 X181.001 Y204.803 E3.85085
G1 X180.976 Y204.245 E3.87315
G1 X180.975 Y199.174 E4.07554
G1 X181.015 Y198.494 E4.10273
G1 X181.134 Y197.824 E4.12989
G1 X181.331 Y197.172 E4.15707
G1 X181.603 Y196.548 E4.18424
G1 X181.946 Y195.96 E4.21141
G1 X182.356 Y195.416 E4.2386
G1 X182.827 Y194.924 E4.26578
G1 X182.999 Y194.782 E4.27468
G1 X183 Y193.674 E4.31891
G1 X182.526 Y193.22 E4.3451
G1 X182.092 Y192.695 E4.37229
G1 X181.723 Y192.123 E4.39946
G1 X181.424 Y191.511 E4.42664
G1 X181.199 Y190.869 E4.45379
G1 X181.05 Y190.204 E4.48099
G1 X180.975 Y189.272 E4.51831
G1 X180.976 Y184.202 E4.72067
G1 X181.002 Y183.652 E4.74264
G1 X181.025 Y183.411 E4.75231
G1 X181.137 Y182.706 E4.7808
G1 X181.19 Y182.467 E4.79057
G1 X181.386 Y181.783 E4.81897
G1 X181.468 Y181.552 E4.82875
G1 X181.742 Y180.908 E4.85668
G1 X181.85 Y180.691 E4.86636
G1 X182.202 Y180.079 E4.89454
G1 X182.338 Y179.873 E4.90439
G1 X182.768 Y179.302 E4.93292
G1 X182.926 Y179.117 E4.94263
G1 X183.418 Y178.608 E4.97088
G1 F7200 E2.97088
G1 F600 Z0.64
G0 F30000 X183.688 Y178.902 Z0.64
G1 F600 Z0.24
G1 F3600 E4.97088
G1 F1200 X183.867 Y178.738 E4.98057
G1 X184.374 Y178.327 E5.00662
G1 X184.574 Y178.184 E5.01643
G1 X185.143 Y177.829 E5.0432
G1 X185.359 Y177.712 E5.05301
G1 X185.993 Y177.42 E5.08086
G1 X186.253 Y177.32 E5.09198
G1 X186.933 Y177.109 E5.1204
G1 X187.171 Y177.052 E5.13017
G1 X187.865 Y176.933 E5.15827
G1 X188.141 Y176.904 E5.16935
G1 X188.704 Y176.874 E5.19185
G1 X192.692 Y176.873 E5.35102
G1 X193.325 Y176.91 E5.37633
G1 X193.639 Y176.947 E5.38895
G1 X194.327 Y177.074 E5.41687
G1 X194.561 Y177.133 E5.4265
G1 X195.235 Y177.351 E5.45477
G1 X195.45 Y177.437 E5.46402
G1 X195.553 Y177.397 E5.46843
G1 X196.233 Y177.186 E5.49684
G1 X196.471 Y177.129 E5.50661
G1 X197.165 Y177.01 E5.53471
G1 X197.441 Y176.981 E5.54579
G1 X198.004 Y176.951 E5.56829
G1 X201.992 Y176.95 E5.72746
G1 X202.625 Y176.987 E5.75277
G1 X202.939 Y177.024 E5.76539
G1 X203.658 Y177.159 E5.79459
G1 X203.894 Y177.22 E5.80432
G1 X204.51 Y177.419 E5.83015
G1 X204.735 Y177.507 E5.8398
G1 X205.348 Y177.792 E5.86678
G1 X205.565 Y177.91 E5.87664
G1 X206.157 Y178.283 E5.90456
G1 X206.383 Y178.447 E5.91571
G1 X206.917 Y178.89 E5.9434
G1 X207.094 Y179.057 E5.95311
G1 X207.565 Y179.563 E5.9807
G1 X207.719 Y179.751 E5.9904
G1 X208.119 Y180.308 E6.01777
G1 X208.268 Y180.546 E6.02898
G1 X208.606 Y181.175 E6.05748
G1 X208.707 Y181.397 E6.06721
G1 X208.937 Y181.992 E6.09267
G1 X209.011 Y182.224 E6.10239
G1 X209.186 Y182.936 E6.13166
G1 X209.234 Y183.211 E6.1428
G1 X209.3 Y183.753 E6.16459
G1 X209.324 Y184.279 E6.18561
G1 X209.324 Y191.835 E6.48718
G1 X209.914 Y191.933 E6.51105
G1 X210.429 Y192.059 E6.53221
G1 X210.714 Y192.144 E6.54408
G1 X211.223 Y192.324 E6.56563
G1 X211.754 Y192.557 E6.58878
G1 X211.98 Y192.669 E6.59884
G1 X212.437 Y192.924 E6.61973
G1 X212.689 Y193.081 E6.63158
G1 X213.204 Y193.444 E6.65673
G1 X213.477 Y193.662 E6.67067
G1 X213.893 Y194.031 E6.69287
G1 X214.384 Y194.542 E6.72115
G1 X214.546 Y194.731 E6.73109
G1 X214.872 Y195.151 E6.75231
G1 X215.044 Y195.397 E6.76429
G1 X215.342 Y195.875 E6.78677
G1 X215.486 Y196.135 E6.79863
G1 X215.728 Y196.63 E6.82062
G1 X215.845 Y196.904 E6.83251
G1 X216.035 Y197.422 E6.85453
G1 X216.231 Y198.12 E6.88347
G1 X216.294 Y198.411 E6.89535
G1 X216.388 Y199.009 E6.91951
G1 X216.446 Y199.784 E6.95053
G1 X216.449 Y200.028 E6.96027
G1 X216.429 Y200.563 E6.98164
G1 X216.403 Y200.861 E6.99358
G1 X216.324 Y201.42 E7.01611
G1 X216.267 Y201.714 E7.02806
G1 X216.141 Y202.229 E7.04923
G1 X216.056 Y202.514 E7.0611
G1 X215.876 Y203.023 E7.08264
G1 X215.648 Y203.545 E7.10538
G1 X215.537 Y203.77 E7.11539
G1 X215.274 Y204.241 E7.13692
G1 X215.116 Y204.494 E7.14883
G1 X214.756 Y205.004 E7.17374
G1 X214.538 Y205.277 E7.18769
G1 X214.169 Y205.693 E7.20988
G1 X213.658 Y206.184 E7.23817
G1 X213.469 Y206.346 E7.2481
G1 X213.054 Y206.668 E7.26907
G1 X212.81 Y206.839 E7.28096
G1 X212.326 Y207.142 E7.30375
G1 X212.064 Y207.287 E7.3157
G1 X211.57 Y207.528 E7.33764
G1 X211.296 Y207.645 E7.34953
G1 X210.778 Y207.835 E7.37155
G1 X210.08 Y208.031 E7.40049
G1 X209.789 Y208.094 E7.41237
G1 X209.187 Y208.189 E7.43669
G1 X208.415 Y208.246 E7.46759
G1 X208.141 Y208.248 E7.47853
G1 X207.774 Y208.78 E7.50432
G1 X207.385 Y209.242 E7.52843
G1 X207.218 Y209.419 E7.53814
G1 X206.712 Y209.89 E7.56573
G1 X206.524 Y210.044 E7.57543
G1 X205.967 Y210.444 E7.6028
G1 X205.729 Y210.593 E7.61401
G1 X205.259 Y210.856 E7.6355
G1 X204.707 Y211.103 E7.65964
G1 X204.447 Y211.203 E7.67076
G1 X203.767 Y211.414 E7.69917
G1 X203.529 Y211.471 E7.70894
G1 X202.835 Y211.59 E7.73705
G1 X202.559 Y211.619 E7.74812
G1 X201.996 Y211.649 E7.77062
G1 X198.008 Y211.65 E7.92979
G1 X197.392 Y211.615 E7.95442
G1 X197.078 Y211.579 E7.96703
G1 X196.292 Y211.429 E7.99897
G1 X196.024 Y211.357 E8.01005
G1 X195.351 Y211.128 E8.03842
G1 X195.25 Y211.086 E8.04279
G1 X195.147 Y211.126 E8.0472
G1 X194.467 Y211.337 E8.07561
G1 X194.229 Y211.394 E8.08538
G1 X193.535 Y211.513 E8.11348
G1 X193.259 Y211.542 E8.12456
G1 X192.696 Y211.572 E8.14706
G1 X188.708 Y211.573 E8.30623
G1 X188.092 Y211.538 E8.33086
G1 X187.778 Y211.502 E8.34347
G1 X186.992 Y211.352 E8.37541
G1 X186.724 Y211.28 E8.38649
G1 X186.051 Y211.051 E8.41486
G1 X185.825 Y210.957 E8.42463
G1 X185.195 Y210.645 E8.45269
G1 X184.953 Y210.505 E8.46385
G1 X184.413 Y210.148 E8.48968
G1 X184.244 Y210.021 E8.49812
G1 X183.782 Y209.632 E8.52223
G1 X183.605 Y209.465 E8.53194
G1 X183.134 Y208.959 E8.55953
G1 X182.98 Y208.771 E8.56923
G1 X182.577 Y208.209 E8.59683
G1 X182.429 Y207.972 E8.60798
G1 X182.094 Y207.348 E8.63625
G1 X181.993 Y207.126 E8.64598
G1 X181.748 Y206.481 E8.67352
G1 X181.666 Y206.215 E8.68463
G1 X181.498 Y205.501 E8.71391
G1 X181.4 Y204.774 E8.74318
G1 X181.376 Y204.245 E8.76432
G1 X181.375 Y199.174 E8.96671
G1 X181.415 Y198.518 E8.99295
G1 X181.534 Y197.872 E9.01916
G1 X181.731 Y197.245 E9.04539
G1 X182.002 Y196.647 E9.0716
G1 X182.344 Y196.086 E9.09782
G1 X182.752 Y195.571 E9.12404
G1 X183.219 Y195.109 E9.15026
G1 X183.399 Y194.97 E9.15934
G1 X183.4 Y193.475 E9.21901
G1 X183.172 Y193.295 E9.2306
G1 X182.71 Y192.828 E9.25682
G1 X182.309 Y192.308 E9.28303
G1 X181.973 Y191.744 E9.30923
G1 X181.709 Y191.142 E9.33547
G1 X181.519 Y190.513 E9.36169
G1 X181.408 Y189.866 E9.38789
G1 X181.375 Y189.272 E9.41164
G1 X181.376 Y184.202 E9.61399
G1 X181.4 Y183.69 E9.63445
G1 X181.423 Y183.449 E9.64411
G1 X181.527 Y182.793 E9.67062
G1 X181.58 Y182.554 E9.68039
G1 X181.763 Y181.917 E9.70685
G1 X181.845 Y181.686 E9.71663
G1 X182.1 Y181.086 E9.74265
G1 X182.208 Y180.869 E9.75232
G1 X182.536 Y180.3 E9.77854
G1 X182.672 Y180.094 E9.78839
G1 X183.072 Y179.562 E9.81495
G1 X183.23 Y179.377 E9.82466
G1 X183.688 Y178.902 E9.851
G1 F7200 E7.851
G1 F600 Z0.64
G0 F30000 X183.958 Y179.197 Z0.64
G1 F600 Z0.24
G1 F3600 E9.851
G1 F1200 X184.137 Y179.033 E9.86069
G1 X184.607 Y178.653 E9.88481
G1 X184.807 Y178.51 E9.89463
G1 X185.334 Y178.181 E9.91942
G1 X185.55 Y178.064 E9.92923
G1 X186.136 Y177.793 E9.95499
G1 X186.396 Y177.693 E9.96611
G1 X187.026 Y177.498 E9.99243
G1 X187.264 Y177.441 E10.0022
G1 X187.907 Y177.33 E10.02825
G1 X188.183 Y177.301 E10.03932
G1 X188.704 Y177.274 E10.06014
G1 X192.692 Y177.273 E10.21931
G1 X193.278 Y177.307 E10.24274
G1 X193.592 Y177.344 E10.25536
G1 X194.229 Y177.462 E10.28122
G1 X194.463 Y177.521 E10.29085
G1 X195.087 Y177.722 E10.31701
G1 X195.436 Y177.87 E10.33214
G1 X195.696 Y177.77 E10.34326
G1 X196.326 Y177.575 E10.36958
G1 X196.564 Y177.518 E10.37935
G1 X197.207 Y177.407 E10.4054
G1 X197.483 Y177.378 E10.41647
G1 X198.004 Y177.351 E10.43729
G1 X201.992 Y177.35 E10.59646
G1 X202.578 Y177.384 E10.61989
G1 X202.892 Y177.421 E10.63251
G1 X203.558 Y177.546 E10.65956
G1 X203.794 Y177.607 E10.66928
G1 X204.364 Y177.791 E10.69319
G1 X204.589 Y177.879 E10.70283
G1 X205.157 Y178.143 E10.72783
G1 X205.374 Y178.261 E10.73769
G1 X205.922 Y178.607 E10.76356
G1 X206.148 Y178.771 E10.7747
G1 X206.642 Y179.181 E10.80033
G1 X206.819 Y179.348 E10.81004
G1 X207.256 Y179.817 E10.83562
G1 X207.41 Y180.005 E10.84532
G1 X207.78 Y180.52 E10.87063
G1 X207.929 Y180.758 E10.88184
G1 X208.242 Y181.34 E10.90821
G1 X208.343 Y181.562 E10.91795
G1 X208.556 Y182.114 E10.94156
G1 X208.63 Y182.346 E10.95128
G1 X208.792 Y183.005 E10.97837
G1 X208.84 Y183.28 E10.98951
G1 X208.901 Y183.781 E11.00965
G1 X208.924 Y184.279 E11.02955
G1 X208.924 Y192.187 E11.34518
G1 X209.028 Y192.196 E11.34934
G1 X209.544 Y192.268 E11.37014
G1 X210.315 Y192.443 E11.40169
G1 X211.071 Y192.694 E11.43349
G1 X211.576 Y192.915 E11.45549
G1 X212.226 Y193.263 E11.48491
G1 X212.478 Y193.42 E11.49676
G1 X212.954 Y193.757 E11.52004
G1 X213.227 Y193.975 E11.53398
G1 X213.612 Y194.316 E11.55451
G1 X214.08 Y194.802 E11.58144
G1 X214.544 Y195.38 E11.61102
G1 X214.716 Y195.626 E11.623
G1 X214.992 Y196.069 E11.64384
G1 X215.136 Y196.329 E11.6557
G1 X215.36 Y196.787 E11.67605
G1 X215.477 Y197.061 E11.68794
G1 X215.654 Y197.54 E11.70832
G1 X215.84 Y198.205 E11.73588
G1 X215.903 Y198.496 E11.74776
G1 X215.991 Y199.05 E11.77015
G1 X216.046 Y199.789 E11.79973
G1 X216.03 Y200.529 E11.82927
G1 X216.004 Y200.827 E11.84121
G1 X215.932 Y201.344 E11.86204
G1 X215.757 Y202.115 E11.8936
G1 X215.506 Y202.871 E11.92539
G1 X215.289 Y203.368 E11.94704
G1 X214.935 Y204.029 E11.97696
G1 X214.777 Y204.282 E11.98887
G1 X214.443 Y204.754 E12.01195
G1 X214.225 Y205.027 E12.02589
G1 X213.884 Y205.412 E12.04642
G1 X213.398 Y205.88 E12.07335
G1 X212.825 Y206.341 E12.1027
G1 X212.581 Y206.512 E12.11459
G1 X212.132 Y206.792 E12.13571
G1 X211.87 Y206.937 E12.14766
G1 X211.413 Y207.16 E12.16796
G1 X211.139 Y207.277 E12.17985
G1 X210.66 Y207.454 E12.20023
G1 X209.995 Y207.64 E12.22779
G1 X209.704 Y207.703 E12.23967
G1 X209.147 Y207.791 E12.26218
G1 X208.41 Y207.846 E12.29168
G1 X207.93 Y207.84 E12.31084
G1 X207.911 Y207.873 E12.31236
G1 X207.581 Y208.371 E12.3362
G1 X207.454 Y208.54 E12.34464
G1 X207.094 Y208.967 E12.36693
G1 X206.927 Y209.144 E12.37664
G1 X206.458 Y209.581 E12.40223
G1 X206.27 Y209.735 E12.41193
G1 X205.755 Y210.105 E12.43724
G1 X205.081 Y210.498 E12.46838
G1 X204.564 Y210.73 E12.49099
G1 X204.304 Y210.83 E12.50211
G1 X203.674 Y211.025 E12.52843
G1 X203.436 Y211.082 E12.5382
G1 X202.793 Y211.193 E12.56424
G1 X202.517 Y211.222 E12.57532
G1 X201.996 Y211.249 E12.59614
G1 X198.008 Y211.25 E12.75531
G1 X197.437 Y211.217 E12.77814
G1 X197.123 Y211.181 E12.79075
G1 X196.396 Y211.043 E12.82029
G1 X196.128 Y210.971 E12.83136
G1 X195.505 Y210.759 E12.85763
G1 X195.259 Y210.655 E12.86829
G1 X195.004 Y210.753 E12.87919
G1 X194.374 Y210.948 E12.90551
G1 X194.136 Y211.005 E12.91528
G1 X193.493 Y211.116 E12.94133
G1 X193.217 Y211.145 E12.9524
G1 X192.696 Y211.172 E12.97322
G1 X188.708 Y211.173 E13.13239
G1 X188.137 Y211.14 E13.15522
G1 X187.823 Y211.104 E13.16784
G1 X187.096 Y210.966 E13.19737
G1 X186.828 Y210.894 E13.20845
G1 X186.205 Y210.682 E13.23471
