;FLAVOR:Marlin
;TIME:3567
;Filament used: 1.40654m
;Layer height: 0.16
;MINX:57.39
;MINY:37.301
;MINZ:0.16
;MAXX:136.527
;MAXY:71.586
;MAXZ:5.36
;Generated with Cura_SteamEngine 4.7.1
M140 S60
M105
M190 S60
M104 S207
M105
M109 S207
M82 ;absolute extrusion mode
M201 X500.00 Y500.00 Z100.00 E5000.00 ;Setup machine max acceleration
M203 X500.00 Y500.00 Z10.00 E50.00 ;Setup machine max feedrate
M204 P500.00 R1000.00 T500.00 ;Setup Print/Retract/Travel acceleration
M205 X8.00 Y8.00 Z0.40 E5.00 ;Setup Jerk
M220 S100 ;Reset Feedrate
M221 S100 ;Reset Flowrate

G28 ;Home

G92 E0 ;Reset Extruder
G1 Z2.0 F3000 ;Move Z Axis up
G1 X10.1 Y20 Z0.28 F5000.0 ;Move to start position
G1 X10.1 Y200.0 Z0.28 F1500.0 E15 ;Draw the first line
G1 X10.4 Y200.0 Z0.28 F5000.0 ;Move to side a little
G1 X10.4 Y20 Z0.28 F1500.0 E30 ;Draw the second line
G92 E0 ;Reset Extruder
G1 Z2.0 F3000 ;Move Z Axis up

G92 E0
G92 E0
G1 F6000 E-4
;LAYER_COUNT:31
;LAYER:0
M107
M204 S1000
G1 F300 Z0.56
G0 F6000 X87.88 Y43.478 Z0.56
M204 S500
;TYPE:SKIRT
G1 F300 Z0.16
G1 F2100 E0
G1 F1200 X88.054 Y43.218 E0.00728
G1 X88.275 Y43.02 E0.01419
G1 X88.388 Y42.941 E0.0174
G1 X88.665 Y42.796 E0.02468
G1 X88.969 Y42.726 E0.03194
G1 X89.259 Y42.732 E0.0387
G1 X91.032 Y42.979 E0.08038
G1 X92.873 Y43.223 E0.12361
G1 X94.86 Y43.475 E0.17024
G1 X97.024 Y43.74 E0.221
G1 X99.459 Y44.026 E0.27809
G1 X102.98 Y44.43 E0.3606
G1 X106.579 Y44.832 E0.44491
G1 X110.533 Y45.262 E0.53751
G1 X113.864 Y45.617 E0.6155
G1 X127.118 Y42.825 E0.93086
G1 X127.43 Y42.8 E0.93815
G1 X127.506 Y42.814 E0.93994
G1 X127.841 Y42.675 E0.94839
G1 X129.533 Y42.317 E0.98865
G1 X129.68 Y42.295 E0.99211
G1 X130.124 Y42.257 E1.00249
G1 X130.218 Y42.253 E1.00468
G1 X130.298 Y42.252 E1.00654
G1 X130.56 Y42.259 E1.01264
G1 X130.729 Y42.269 E1.01659
G1 X130.852 Y42.283 E1.01947
G1 X131.137 Y42.329 E1.02619
G1 X131.205 Y42.342 E1.0278
G1 X131.337 Y42.371 E1.03095
G1 X131.411 Y42.389 E1.03272
G1 X131.628 Y42.451 E1.03798
G1 X131.715 Y42.48 E1.04011
G1 X131.978 Y42.577 E1.04664
G1 X132.06 Y42.611 E1.0487
G1 X132.331 Y42.734 E1.05563
G1 X132.47 Y42.808 E1.0593
G1 X132.683 Y42.94 E1.06513
G1 X132.842 Y43.043 E1.06954
G1 X132.923 Y43.1 E1.07185
G1 X133.161 Y43.283 E1.07884
G1 X133.224 Y43.335 E1.08074
G1 X133.3 Y43.402 E1.0831
G1 X133.356 Y43.455 E1.0849
G1 X133.518 Y43.617 E1.09023
G1 X133.564 Y43.665 E1.09178
G1 X133.746 Y43.868 E1.09813
G1 X133.82 Y43.959 E1.10086
G1 X133.905 Y44.075 E1.1042
G1 X134.036 Y44.259 E1.10946
G1 X134.077 Y44.32 E1.11117
G1 X134.147 Y44.432 E1.11425
G1 X134.191 Y44.509 E1.11631
G1 X134.324 Y44.763 E1.12299
G1 X134.406 Y44.941 E1.12755
G1 X134.433 Y45.005 E1.12917
G1 X134.529 Y45.249 E1.13527
G1 X134.574 Y45.388 E1.13868
G1 X134.641 Y45.644 E1.14484
G1 X134.656 Y45.709 E1.14639
G1 X134.698 Y45.915 E1.15128
G1 X134.71 Y45.983 E1.15289
G1 X134.752 Y46.271 E1.15967
G1 X134.76 Y46.343 E1.16135
G1 X134.772 Y46.482 E1.1646
G1 X134.777 Y46.575 E1.16677
G1 X134.779 Y46.776 E1.17145
G1 X134.778 Y46.843 E1.17301
G1 X134.77 Y47.02 E1.17714
G1 X134.763 Y47.105 E1.17912
G1 X134.733 Y47.366 E1.18524
G1 X134.721 Y47.444 E1.18708
G1 X134.683 Y47.654 E1.19204
G1 X134.653 Y47.782 E1.19511
G1 X134.553 Y48.122 E1.20336
G1 X134.519 Y48.223 E1.20584
G1 X134.391 Y48.55 E1.21401
G1 X134.333 Y48.675 E1.21722
G1 X134.251 Y48.831 E1.22133
G1 X134.116 Y49.071 E1.22774
G1 X134.05 Y49.175 E1.2306
G1 X133.865 Y49.438 E1.23809
G1 X133.799 Y49.523 E1.2406
G1 X133.718 Y49.619 E1.24352
G1 X133.677 Y49.665 E1.24495
G1 X133.494 Y49.861 E1.2512
G1 X133.45 Y49.906 E1.25266
G1 X133.304 Y50.047 E1.25739
G1 X133.223 Y50.119 E1.25991
G1 X133.004 Y50.296 E1.26647
G1 X132.91 Y50.364 E1.26917
G1 X132.605 Y50.566 E1.27769
G1 X132.486 Y50.636 E1.2809
G1 X132.261 Y50.75 E1.28677
G1 X125.367 Y53.984 E1.46406
G1 X125.07 Y54.08 E1.47133
G1 X124.868 Y54.091 E1.47604
G1 X124.813 Y54.152 E1.47795
G1 X124.574 Y54.353 E1.48522
G1 X124.433 Y54.431 E1.48897
G1 X123.216 Y55.004 E1.52029
G1 X122.814 Y55.115 E1.53
G1 X122.753 Y55.121 E1.53143
G1 X122.336 Y55.09 E1.54116
G1 X88.483 Y46.628 E2.35358
G1 X88.192 Y46.515 E2.36085
G1 X87.939 Y46.331 E2.36813
G1 X87.737 Y46.083 E2.37558
G1 X87.663 Y45.963 E2.37886
G1 X87.535 Y45.678 E2.38614
G1 X87.482 Y45.37 E2.39341
G1 X87.507 Y45.069 E2.40045
G1 X87.778 Y43.773 E2.43127
G1 X87.88 Y43.478 E2.43854
M204 S1000
G1 F6000 E-1.56146
G1 F300 Z0.56
G0 F6000 X88.213 Y43.598 Z0.56
M204 S500
G1 F300 Z0.16
G1 F2100 E2.43854
G1 F1200 X88.476 Y43.307 E2.44767
G1 X88.589 Y43.228 E2.45088
G1 X88.825 Y43.111 E2.45701
G1 X89.211 Y43.078 E2.46603
G1 X90.984 Y43.326 E2.50771
G1 X92.829 Y43.57 E2.55104
G1 X94.821 Y43.823 E2.59779
G1 X96.983 Y44.088 E2.64851
G1 X99.418 Y44.374 E2.70559
G1 X102.938 Y44.777 E2.78808
G1 X106.544 Y45.18 E2.87256
G1 X110.496 Y45.61 E2.96511
G1 X113.884 Y45.971 E3.04444
G1 X127.191 Y43.168 E3.36105
G1 X127.454 Y43.153 E3.36718
G1 X127.569 Y43.182 E3.36994
G1 X127.603 Y43.15 E3.37103
G1 X127.914 Y43.017 E3.37891
G1 X129.606 Y42.659 E3.41917
G1 X129.711 Y42.643 E3.42164
G1 X130.1 Y42.609 E3.43073
G1 X130.233 Y42.603 E3.43383
G1 X130.29 Y42.602 E3.43516
G1 X130.508 Y42.607 E3.44024
G1 X130.709 Y42.619 E3.44493
G1 X130.796 Y42.628 E3.44696
G1 X131.13 Y42.683 E3.45484
G1 X131.262 Y42.712 E3.45799
G1 X131.531 Y42.788 E3.4645
G1 X131.594 Y42.808 E3.46604
G1 X131.857 Y42.905 E3.47256
G1 X131.916 Y42.929 E3.47405
G1 X132.187 Y43.052 E3.48098
G1 X132.286 Y43.105 E3.48359
G1 X132.493 Y43.234 E3.48927
G1 X132.652 Y43.337 E3.49368
G1 X132.709 Y43.377 E3.4953
G1 X132.947 Y43.56 E3.50229
G1 X132.993 Y43.598 E3.50368
G1 X133.109 Y43.702 E3.50731
G1 X133.271 Y43.864 E3.51264
G1 X133.485 Y44.102 E3.52009
G1 X133.538 Y44.167 E3.52205
G1 X133.62 Y44.278 E3.52526
G1 X133.751 Y44.462 E3.53052
G1 X133.78 Y44.505 E3.53172
G1 X133.85 Y44.617 E3.5348
G1 X133.882 Y44.672 E3.53628
G1 X133.985 Y44.867 E3.54142
G1 X134.088 Y45.088 E3.54709
G1 X134.203 Y45.378 E3.55436
G1 X134.235 Y45.476 E3.55676
G1 X134.302 Y45.732 E3.56292
G1 X134.313 Y45.779 E3.56404
G1 X134.364 Y46.034 E3.5701
G1 X134.406 Y46.322 E3.57687
G1 X134.412 Y46.373 E3.57807
G1 X134.424 Y46.512 E3.58132
G1 X134.427 Y46.578 E3.58285
G1 X134.429 Y46.779 E3.58753
G1 X134.42 Y47.005 E3.5928
G1 X134.415 Y47.065 E3.5942
G1 X134.385 Y47.326 E3.60032
G1 X134.377 Y47.382 E3.60163
G1 X134.339 Y47.592 E3.6066
G1 X134.317 Y47.683 E3.60878
G1 X134.217 Y48.023 E3.61703
G1 X134.193 Y48.095 E3.6188
G1 X134.065 Y48.422 E3.62698
G1 X134.024 Y48.511 E3.62926
G1 X133.946 Y48.659 E3.63315
G1 X133.811 Y48.899 E3.63956
G1 X133.764 Y48.973 E3.64161
G1 X133.579 Y49.236 E3.64909
G1 X133.532 Y49.297 E3.65088
G1 X133.422 Y49.426 E3.65483
G1 X133.239 Y49.622 E3.66107
G1 X133.061 Y49.795 E3.66685
G1 X133.003 Y49.847 E3.66867
G1 X132.784 Y50.024 E3.67522
G1 X132.717 Y50.073 E3.67716
G1 X132.412 Y50.275 E3.68567
G1 X132.327 Y50.324 E3.68796
G1 X132.113 Y50.433 E3.69355
G1 X125.219 Y53.667 E3.87084
G1 X124.966 Y53.742 E3.87698
G1 X124.702 Y53.738 E3.88313
G1 X124.682 Y53.731 E3.88362
G1 X124.6 Y53.866 E3.8873
G1 X124.555 Y53.915 E3.88885
G1 X124.284 Y54.115 E3.89669
G1 X123.067 Y54.688 E3.92801
G1 X122.78 Y54.767 E3.93494
G1 X122.719 Y54.773 E3.93637
G1 X122.421 Y54.751 E3.94332
G1 X88.568 Y46.289 E4.75574
G1 X88.324 Y46.187 E4.7619
G1 X88.122 Y46.017 E4.76805
G1 X88.035 Y45.899 E4.77146
G1 X87.961 Y45.779 E4.77474
G1 X87.858 Y45.536 E4.78089
G1 X87.832 Y45.274 E4.78702
G1 X87.85 Y45.141 E4.79014
G1 X88.121 Y43.845 E4.82097
G1 X88.213 Y43.598 E4.8271
M204 S1000
G1 F6000 E0.8271
G1 F300 Z0.56
G0 F6000 X88.543 Y43.729 Z0.56
M204 S500
G1 F300 Z0.16
G1 F2100 E4.8271
G1 F1200 X88.676 Y43.594 E4.83152
G1 X88.789 Y43.515 E4.83473
G1 X88.976 Y43.433 E4.83948
G1 X89.162 Y43.425 E4.84381
G1 X90.935 Y43.672 E4.88549
G1 X92.785 Y43.917 E4.92894
G1 X94.777 Y44.17 E4.97569
G1 X96.945 Y44.436 E5.02654
G1 X99.376 Y44.721 E5.08353
G1 X102.901 Y45.125 E5.16614
G1 X106.505 Y45.528 E5.25057
G1 X110.458 Y45.958 E5.34315
G1 X113.9 Y46.325 E5.42374
G1 X127.263 Y43.51 E5.74168
G1 X127.467 Y43.508 E5.74643
G1 X127.656 Y43.583 E5.75117
G1 X127.672 Y43.562 E5.75178
G1 X127.822 Y43.425 E5.75651
G1 X127.986 Y43.359 E5.76063
G1 X129.678 Y43.001 E5.80089
G1 X129.741 Y42.992 E5.80238
G1 X130.154 Y42.956 E5.81203
G1 X130.248 Y42.952 E5.81422
G1 X130.519 Y42.958 E5.82053
G1 X130.688 Y42.968 E5.82447
G1 X130.741 Y42.974 E5.82571
G1 X131.055 Y43.025 E5.83312
G1 X131.218 Y43.062 E5.83701
G1 X131.473 Y43.136 E5.84319
G1 X131.736 Y43.233 E5.84972
G1 X132.042 Y43.371 E5.85753
G1 X132.102 Y43.403 E5.85912
G1 X132.302 Y43.527 E5.8646
G1 X132.461 Y43.63 E5.86901
G1 X132.496 Y43.655 E5.87001
G1 X132.761 Y43.86 E5.87781
G1 X132.837 Y43.927 E5.88017
G1 X133.043 Y44.133 E5.88695
G1 X133.225 Y44.336 E5.8933
G1 X133.257 Y44.374 E5.89445
G1 X133.466 Y44.665 E5.9028
G1 X133.553 Y44.803 E5.90659
G1 X133.572 Y44.836 E5.90748
G1 X133.688 Y45.056 E5.91327
G1 X133.782 Y45.262 E5.91854
G1 X133.878 Y45.506 E5.92465
G1 X133.897 Y45.565 E5.92609
G1 X133.964 Y45.821 E5.93225
G1 X134.018 Y46.084 E5.9385
G1 X134.06 Y46.372 E5.94528
G1 X134.075 Y46.542 E5.94925
G1 X134.077 Y46.582 E5.95018
G1 X134.079 Y46.783 E5.95486
G1 X134.068 Y47.025 E5.9605
G1 X134.038 Y47.286 E5.96662
G1 X133.995 Y47.529 E5.97237
G1 X133.982 Y47.584 E5.97368
G1 X133.882 Y47.924 E5.98193
G1 X133.867 Y47.967 E5.98299
G1 X133.739 Y48.294 E5.99117
G1 X133.714 Y48.348 E5.99255
G1 X133.641 Y48.487 E5.99621
G1 X133.506 Y48.727 E6.00262
G1 X133.477 Y48.772 E6.00387
G1 X133.292 Y49.035 E6.01135
G1 X133.264 Y49.072 E6.01243
G1 X133.166 Y49.187 E6.01595
G1 X132.964 Y49.403 E6.02284
G1 X132.818 Y49.544 E6.02756
G1 X132.783 Y49.574 E6.02864
G1 X132.564 Y49.751 E6.03519
G1 X132.524 Y49.781 E6.03636
G1 X132.219 Y49.983 E6.04487
G1 X132.168 Y50.013 E6.04625
G1 X131.964 Y50.116 E6.05157
G1 X125.07 Y53.35 E6.22886
G1 X124.872 Y53.399 E6.23361
G1 X124.67 Y53.369 E6.23836
G1 X124.513 Y53.276 E6.24261
G1 X124.45 Y53.452 E6.24697
G1 X124.343 Y53.629 E6.25178
G1 X124.298 Y53.678 E6.25333
G1 X124.135 Y53.798 E6.25804
G1 X122.918 Y54.371 E6.28936
G1 X122.745 Y54.418 E6.29353
G1 X122.684 Y54.424 E6.29496
G1 X122.506 Y54.411 E6.29912
G1 X88.653 Y45.949 E7.11153
G1 X88.468 Y45.862 E7.11629
G1 X88.333 Y45.716 E7.12092
G1 X88.259 Y45.596 E7.12421
G1 X88.188 Y45.404 E7.12897
G1 X88.192 Y45.213 E7.13342
G1 X88.463 Y43.917 E7.16425
G1 X88.543 Y43.729 E7.169
M204 S1000
G1 F6000 E3.169
G1 F300 Z0.56
G0 F6000 X88.806 Y43.988 Z0.56
M204 S500
G1 F300 Z0.16
G1 F2100 E7.169
G1 F1200 X88.877 Y43.881 E7.17199
G1 X88.99 Y43.802 E7.1752
G1 X89.114 Y43.772 E7.17817
G1 X90.887 Y44.019 E7.21985
G1 X92.742 Y44.265 E7.26342
G1 X94.732 Y44.517 E7.31012
G1 X96.902 Y44.783 E7.36102
G1 X99.337 Y45.069 E7.4181
G1 X102.861 Y45.473 E7.50068
G1 X106.467 Y45.876 E7.58516
G1 X110.42 Y46.306 E7.67774
G1 X113.92 Y46.679 E7.75969
G1 X127.335 Y43.853 E8.07887
G1 X127.451 Y43.868 E8.0816
G1 X127.521 Y43.935 E8.08385
G1 X127.648 Y44.149 E8.08965
G1 X127.671 Y44.263 E8.09235
G1 X127.634 Y44.349 E8.09453
G1 X127.436 Y44.592 E8.10183
G1 X127.274 Y44.829 E8.10851
G1 X127.157 Y45.03 E8.11393
G1 X127.06 Y45.225 E8.119
G1 X126.962 Y45.457 E8.12486
G1 X124.121 Y53.333 E8.3198
G1 X124.085 Y53.392 E8.32141
G1 X124.04 Y53.441 E8.32296
G1 X123.986 Y53.481 E8.32452
G1 X122.769 Y54.054 E8.35584
G1 X122.711 Y54.07 E8.35724
G1 X122.65 Y54.076 E8.35867
G1 X122.591 Y54.072 E8.36004
G1 X88.738 Y45.61 E9.17246
G1 X88.631 Y45.532 E9.17554
G1 X88.557 Y45.412 E9.17883
G1 X88.535 Y45.284 E9.18185
G1 X88.806 Y43.988 E9.21268
M204 S1000
G1 F6000 E5.21268
G1 F300 Z0.56
G0 F6000 X86.594 Y42.92 Z0.56
M204 S500
G1 F300 Z0.16
G1 F2100 E9.21268
G1 F1200 X86.232 Y43.919 E9.23742
G1 X86.089 Y44.197 E9.24469
G1 X86.047 Y44.244 E9.24616
G1 X86.048 Y44.331 E9.24819
G1 X85.983 Y44.611 E9.25488
G1 X81.472 Y57.079 E9.56358
G1 X81.851 Y59.046 E9.61021
G1 X82.458 Y62.154 E9.68394
G1 X83.031 Y65.053 E9.75274
G1 X83.475 Y67.266 E9.80529
G1 X83.919 Y69.453 E9.85725
G1 X83.941 Y69.765 E9.86453
G1 X83.884 Y70.072 E9.8718
G1 X83.767 Y70.33 E9.8784
G1 X83.697 Y70.446 E9.88155
G1 X83.503 Y70.691 E9.88883
G1 X83.253 Y70.878 E9.8961
G1 X82.995 Y70.988 E9.90263
G1 X81.135 Y71.537 E9.94778
G1 X80.826 Y71.586 E9.95506
G1 X80.515 Y71.556 E9.96234
G1 X80.226 Y71.451 E9.96949
G1 X80.1 Y71.386 E9.9728
G1 X79.843 Y71.208 E9.98007
G1 X79.639 Y70.971 E9.98735
G1 X79.5 Y70.686 E9.99474
G1 X72.223 Y48.944 E10.52854
G1 X72.163 Y48.637 E10.53582
G1 X72.183 Y48.32 E10.54321
G1 X72.201 Y48.228 E10.5454
G1 X72.299 Y47.931 E10.55268
G1 X72.47 Y47.669 E10.55996
G1 X76.496 Y42.94 E10.70456
G1 X76.727 Y42.73 E10.71183
G1 X76.845 Y42.669 E10.71492
G1 X76.866 Y42.596 E10.71669
G1 X77.061 Y42.28 E10.72533
G1 X79.828 Y39.033 E10.82466
G1 X79.965 Y38.88 E10.82944
G1 X80.059 Y38.786 E10.83253
G1 X80.279 Y38.588 E10.83943
G1 X80.373 Y38.512 E10.84224
G1 X80.629 Y38.324 E10.84963
G1 X80.757 Y38.242 E10.85317
G1 X81.038 Y38.085 E10.86067
G1 X81.125 Y38.04 E10.86295
G1 X81.257 Y37.981 E10.86631
G1 X81.454 Y37.901 E10.87126
G1 X81.577 Y37.859 E10.87429
G1 X81.887 Y37.77 E10.8818
G1 X82.015 Y37.74 E10.88486
G1 X82.216 Y37.705 E10.88961
G1 X82.284 Y37.695 E10.89121
G1 X82.524 Y37.667 E10.89684
G1 X82.678 Y37.657 E10.90043
G1 X82.752 Y37.655 E10.90215
G1 X82.986 Y37.657 E10.9076
G1 X83.093 Y37.663 E10.9101
G1 X83.311 Y37.684 E10.9152
G1 X83.417 Y37.698 E10.91768
G1 X83.725 Y37.755 E10.92498
G1 X83.849 Y37.785 E10.92795
G1 X83.954 Y37.816 E10.9305
G1 X84.018 Y37.837 E10.93206
G1 X84.313 Y37.942 E10.93935
G1 X84.402 Y37.977 E10.94158
G1 X84.505 Y38.023 E10.94421
G1 X84.782 Y38.165 E10.95146
G1 X84.899 Y38.233 E10.95461
G1 X85.159 Y38.406 E10.96188
G1 X85.271 Y38.491 E10.96515
G1 X85.53 Y38.71 E10.97305
G1 X85.63 Y38.805 E10.97626
G1 X85.795 Y38.98 E10.98186
G1 X85.848 Y39.039 E10.9837
G1 X86.001 Y39.224 E10.98929
G1 X86.083 Y39.336 E10.99253
G1 X86.22 Y39.546 E10.99836
G1 X86.26 Y39.612 E11.00016
G1 X86.308 Y39.697 E11.00243
G1 X86.428 Y39.925 E11.00843
G1 X86.481 Y40.04 E11.01138
G1 X86.566 Y40.252 E11.0167
G1 X86.607 Y40.373 E11.01967
G1 X86.69 Y40.665 E11.02674
G1 X86.719 Y40.789 E11.0297
G1 X86.772 Y41.092 E11.03687
G1 X86.786 Y41.21 E11.03963
G1 X86.806 Y41.472 E11.04575
G1 X86.809 Y41.619 E11.04917
G1 X86.794 Y41.958 E11.05707
G1 X86.782 Y42.079 E11.0599
G1 X86.737 Y42.39 E11.06722
G1 X86.714 Y42.508 E11.07002
G1 X86.681 Y42.637 E11.07312
G1 X86.615 Y42.856 E11.07845
G1 X86.594 Y42.92 E11.08001
M204 S1000
G1 F6000 E7.08001
G1 F300 Z0.56
G0 F6000 X86.265 Y42.801 Z0.56
M204 S500
G1 F300 Z0.16
G1 F2100 E11.08001
G1 F1200 X85.903 Y43.8 E11.10475
G1 X85.776 Y44.032 E11.11091
G1 X85.693 Y44.112 E11.11359
G1 X85.706 Y44.192 E11.11548
G1 X85.654 Y44.492 E11.12257
G1 X81.11 Y57.052 E11.43354
G1 X81.508 Y59.111 E11.48237
G1 X82.114 Y62.222 E11.55616
G1 X82.688 Y65.119 E11.62492
G1 X83.132 Y67.336 E11.67756
G1 X83.576 Y69.523 E11.72952
G1 X83.588 Y69.786 E11.73565
G1 X83.467 Y70.149 E11.74455
G1 X83.397 Y70.265 E11.74771
G1 X83.228 Y70.468 E11.75386
G1 X82.896 Y70.652 E11.7627
G1 X81.036 Y71.201 E11.80785
G1 X80.774 Y71.237 E11.814
G1 X80.514 Y71.193 E11.82014
G1 X80.387 Y71.14 E11.82335
G1 X80.261 Y71.075 E11.82665
G1 X80.047 Y70.92 E11.8328
G1 X79.89 Y70.708 E11.83894
G1 X79.832 Y70.575 E11.84232
G1 X72.555 Y48.833 E12.37612
G1 X72.51 Y48.573 E12.38226
G1 X72.526 Y48.387 E12.38661
G1 X72.544 Y48.295 E12.38879
G1 X72.633 Y48.047 E12.39493
G1 X72.737 Y47.896 E12.3992
G1 X76.763 Y43.167 E12.54379
G1 X76.962 Y42.994 E12.54993
G1 X77.141 Y42.908 E12.55456
G1 X77.197 Y42.712 E12.5593
G1 X77.327 Y42.507 E12.56495
G1 X80.089 Y39.266 E12.66409
G1 X80.226 Y39.113 E12.66888
G1 X80.293 Y39.047 E12.67107
G1 X80.513 Y38.849 E12.67796
G1 X80.58 Y38.794 E12.67997
G1 X80.836 Y38.606 E12.68737
G1 X80.927 Y38.547 E12.68989
G1 X81.208 Y38.39 E12.69739
G1 X81.271 Y38.358 E12.69903
G1 X81.389 Y38.305 E12.70205
G1 X81.586 Y38.225 E12.707
G1 X81.674 Y38.195 E12.70916
G1 X81.984 Y38.106 E12.71667
G1 X82.075 Y38.085 E12.71884
G1 X82.276 Y38.05 E12.72359
G1 X82.325 Y38.043 E12.72475
G1 X82.565 Y38.015 E12.73037
G1 X82.62 Y38.01 E12.73166
G1 X82.696 Y38.006 E12.73343
G1 X82.749 Y38.005 E12.73466
G1 X82.983 Y38.007 E12.74011
